X: 38270
T: St. Cecilia's
R: reel
M: 4/4
K: Gmajor
|:DGBd ~g2ag|~f3d cAFA|DGBd gaeg|fdcA dcAd|
DGBd ~g2ag|~f3d cAAG|FAdf agfd|cAdF AG~G2:|
|:dg~g2 g2ag|fd^ce dFAd|dg~g2 fgag|fefa ~g4|
dg~g2 g2ag|fdcA dcAG|FAdf agfd|cAdF AG~G2:|

